X:1
T:Flatbush, 76.76 D
T:Flatbush, 76.76 D
T:Robert H. Wilson, 1911
T:Public Domain Courtesy of the Cyber Hymnal™
C:Robert H. Wilson, 1911
Z:Public Domain
Z:Courtesy of the Cyber Hymnal™
%%score ( 1 2 ) ( 3 4 )
L:1/8
Q:1/4=103
M:3/4
K:Ab
V:1 treble 
V:2 treble 
V:3 bass 
V:4 bass 
V:1
 E2 | [Ec]>[=D=B] [Ec]2 [F_d]2 | [Ec]2 [DB]2 [DE]2 | [DB]>[C=A] [DB]2 [Ec]2 | [CA]4 ([CA][EG]) | %5
 [DF]>[EG] [FA]2 [DF]2 | [DF]2 [CE]2 [Ec]2 | [=DB]3 [DF] [DB]>[Dc] | [EB]4 E2 | %9
 [Ed]>[Ec] [EB]2 [EB]2 | [Ec]2 [Ee]2 [Ec]2 | [FA]>[FA] [FB]2 [FA]2 | [=Ec]4 [EB]2 | %13
 [FA]>[EG] [DA]2 [DF]2 | [CE]2 [EA]2 [FB]2 | [Ec]3 [DB] [Ec]>[DB] | [CA]4 |] %17
V:2
 E2 | x6 | x6 | x6 | x6 | x6 | x6 | x6 | x4 E2 | x6 | x6 | x6 | x6 | x6 | x6 | x6 | x4 |] %17
V:3
 E,2 | [A,,A,]>[A,,A,] [A,,A,]2 [A,,A,]2 | [E,A,]2 [E,G,]2 [E,G,]2 | %3
 [E,G,]>[E,G,] [E,G,]2 [E,G,]2 | [A,,A,]4 A,2 | [D,A,]>[D,A,] [D,A,]2 [D,A,]2 | %6
 [A,,A,]2 [A,,A,]2 [A,,A,]2 | [B,,A,]3 [B,,A,] [B,,F,]>[B,,A,] | [E,G,]4 [E,G,]2 | %9
 [E,B,]>[E,A,] [E,G,]2 [E,G,]2 | A,2 [A,C]2 A,2 | [F,A,]>[F,A,] [D,A,]2 [D,F,]2 | [C,G,]4 [C,G,]2 | %13
 [D,F,]>[D,F,] [D,F,]2 [D,A,]2 | [A,,A,]2 [C,A,]2 [D,A,]2 | [E,A,]3 [E,A,] [E,G,]>[E,G,] | %16
 [A,,A,]4 |] %17
V:4
 E,2 | x6 | x6 | x6 | x4 (A,,C,) | x6 | x6 | x6 | x6 | x6 | A,2 A,2 x2 | x6 | x6 | x6 | x6 | x6 | %16
 x4 |] %17

